X:1
T:Title
%%score { 1 | 2 }
L:1/8
Q:1/4=108
M:4/4
K:G
V:1 treble nm="Grand Piano"
V:2 bass 
V:1
 D2 G>A B2 G2 | e4 d2 z2 | G2 c>B A2 G2 | [DFA]6 z2 | [B,D]2 [DG]>[DFA] B2 G2 | e4 d2 B2 | %6
 [EGd]2 [EGc]2 [DGB]2 [CFA]2 | [B,G]6 z2 | [FA]2 [FA]>[=F^G] [^FA]2 [=GB]2 | [Ac]4 [GB]2 z2 | %10
 [GB]2 [GB]>[G_B] [G=B]2 [EG^c]2 | [DFd]6 z2 | [B,D]2 [DG]>[DFA] B2 G2 | e4 d2 B2 | %14
 [EGd]2 [EGc]2 [DGB]2 [CFA]2 | [B,G]6 z2 |] %16
V:2
 D,2 G,>A, B,2 G,2 | [G,CG]4 [G,B,G]2 z2 | [B,D]2 [A,DF]>[G,DG][K:bass] [F,D]2 [E,^C]2 | D,6 z2 | %4
 G,2 B,,>D,[K:treble] [G,DG]2 [B,D]2 | [CG]4 [G,B,G]2 [G,DG]2 | C,2 C,2 D,2 D,2 | G,6 z2 | %8
 [D,D]2 [D,D]>[D,D] [D,D]2 [G,D]2 | [F,D]4 [G,D]2 z2 | [E,E]2 [E,E]>[E,E] [E,E]2 A,2 | D,6 z2 | %12
 G,2 B,,>D,[K:treble] [G,DG]2 [B,D]2 | [CG]4 [G,B,G]2 [G,DG]2 | C,2 C,2 D,2 D,2 | G,,6 z2 |] %16

